images/11949217.svg

<?xml version="1.0" encoding="UTF-8"?>
<svg xmlns="http://www.w3.org/2000/svg" xmlns:xlink="http://www.w3.org/1999/xlink" width="300pt" height="300pt" viewBox="0 0 300 300" version="1.1">
<defs>
<g>
<symbol overflow="visible" id="glyph0-0">
<path style="stroke:none;" d="M 0.59375 2.125 L 0.59375 -8.46875 L 6.59375 -8.46875 L 6.59375 2.125 Z M 1.265625 1.453125 L 5.9375 1.453125 L 5.9375 -7.78125 L 1.265625 -7.78125 Z M 1.265625 1.453125 "/>
</symbol>
<symbol overflow="visible" id="glyph0-1">
<path style="stroke:none;" d="M 1.171875 -8.75 L 2.765625 -8.75 L 6.65625 -1.4375 L 6.65625 -8.75 L 7.796875 -8.75 L 7.796875 0 L 6.203125 0 L 2.328125 -7.3125 L 2.328125 0 L 1.171875 0 Z M 1.171875 -8.75 "/>
</symbol>
<symbol overflow="visible" id="glyph0-2">
<path style="stroke:none;" d="M 7.734375 -8.078125 L 7.734375 -6.828125 C 7.328125 -7.203125 6.898438 -7.476562 6.453125 -7.65625 C 6.003906 -7.84375 5.523438 -7.9375 5.015625 -7.9375 C 4.015625 -7.9375 3.25 -7.628906 2.71875 -7.015625 C 2.1875 -6.398438 1.921875 -5.515625 1.921875 -4.359375 C 1.921875 -3.210938 2.1875 -2.332031 2.71875 -1.71875 C 3.25 -1.101562 4.015625 -0.796875 5.015625 -0.796875 C 5.523438 -0.796875 6.003906 -0.890625 6.453125 -1.078125 C 6.898438 -1.265625 7.328125 -1.539062 7.734375 -1.90625 L 7.734375 -0.671875 C 7.316406 -0.390625 6.875 -0.175781 6.40625 -0.03125 C 5.945312 0.101562 5.460938 0.171875 4.953125 0.171875 C 3.617188 0.171875 2.570312 -0.234375 1.8125 -1.046875 C 1.050781 -1.859375 0.671875 -2.960938 0.671875 -4.359375 C 0.671875 -5.765625 1.050781 -6.875 1.8125 -7.6875 C 2.570312 -8.5 3.617188 -8.90625 4.953125 -8.90625 C 5.472656 -8.90625 5.960938 -8.832031 6.421875 -8.6875 C 6.890625 -8.550781 7.328125 -8.347656 7.734375 -8.078125 Z M 7.734375 -8.078125 "/>
</symbol>
<symbol overflow="visible" id="glyph0-3">
<path style="stroke:none;" d="M 1.125 -9.125 L 2.203125 -9.125 L 2.203125 0 L 1.125 0 Z M 1.125 -9.125 "/>
</symbol>
</g>
</defs>
<g id="surface43777">
<rect x="0" y="0" width="300" height="300" style="fill:rgb(100%,100%,100%);fill-opacity:1;stroke:none;"/>
<path style="fill:none;stroke-width:1.2;stroke-linecap:butt;stroke-linejoin:miter;stroke:rgb(0%,0%,0%);stroke-opacity:1;stroke-miterlimit:10;" d="M 237.667969 251.394531 L 210.515625 239.144531 "/>
<path style="fill:none;stroke-width:1.2;stroke-linecap:butt;stroke-linejoin:miter;stroke:rgb(0%,0%,0%);stroke-opacity:1;stroke-miterlimit:10;" d="M 261.851562 234.003906 L 237.667969 251.394531 "/>
<path style="fill:none;stroke-width:1.2;stroke-linecap:butt;stroke-linejoin:miter;stroke:rgb(0%,0%,0%);stroke-opacity:1;stroke-miterlimit:10;" d="M 210.515625 239.144531 L 207.546875 209.503906 "/>
<path style="fill:none;stroke-width:1.2;stroke-linecap:butt;stroke-linejoin:miter;stroke:rgb(0%,0%,0%);stroke-opacity:1;stroke-miterlimit:10;" d="M 207.546875 209.503906 L 231.730469 192.113281 "/>
<path style="fill:none;stroke-width:1.2;stroke-linecap:butt;stroke-linejoin:miter;stroke:rgb(0%,0%,0%);stroke-opacity:1;stroke-miterlimit:10;" d="M 231.730469 192.113281 L 258.886719 204.363281 "/>
<path style="fill:none;stroke-width:1.2;stroke-linecap:butt;stroke-linejoin:miter;stroke:rgb(0%,0%,0%);stroke-opacity:1;stroke-miterlimit:10;" d="M 231.730469 192.113281 L 228.765625 162.476562 "/>
<path style="fill:none;stroke-width:1.2;stroke-linecap:butt;stroke-linejoin:miter;stroke:rgb(0%,0%,0%);stroke-opacity:1;stroke-miterlimit:10;" d="M 258.886719 204.363281 L 261.851562 234.003906 "/>
<path style="fill:none;stroke-width:1.2;stroke-linecap:butt;stroke-linejoin:miter;stroke:rgb(0%,0%,0%);stroke-opacity:1;stroke-miterlimit:10;" d="M 228.765625 162.476562 L 215.1875 156.351562 "/>
<path style="fill:none;stroke-width:1.2;stroke-linecap:butt;stroke-linejoin:miter;stroke:rgb(0%,0%,100%);stroke-opacity:1;stroke-miterlimit:10;" d="M 215.1875 156.351562 L 201.613281 150.226562 "/>
<path style="fill:none;stroke-width:1.2;stroke-linecap:butt;stroke-linejoin:miter;stroke:rgb(0%,0%,100%);stroke-opacity:1;stroke-miterlimit:10;" d="M 201.613281 150.226562 L 188.675781 157.609375 "/>
<path style="fill:none;stroke-width:1.2;stroke-linecap:butt;stroke-linejoin:miter;stroke:rgb(0%,0%,0%);stroke-opacity:1;stroke-miterlimit:10;" d="M 188.675781 157.609375 L 175.742188 164.992188 "/>
<path style="fill:none;stroke-width:1.2;stroke-linecap:butt;stroke-linejoin:miter;stroke:rgb(0%,0%,0%);stroke-opacity:1;stroke-miterlimit:10;" d="M 195.5625 121.058594 L 198.585938 135.640625 "/>
<path style="fill:none;stroke-width:1.2;stroke-linecap:butt;stroke-linejoin:miter;stroke:rgb(0%,0%,100%);stroke-opacity:1;stroke-miterlimit:10;" d="M 198.585938 135.640625 L 201.613281 150.226562 "/>
<path style=" stroke:none;fill-rule:nonzero;fill:rgb(100%,100%,100%);fill-opacity:1;" d="M 197.613281 143.226562 L 206.613281 143.226562 L 206.613281 157.226562 L 197.613281 157.226562 Z M 197.613281 143.226562 "/>
<g style="fill:rgb(0%,0%,100%);fill-opacity:1;">
  <use xlink:href="#glyph0-1" x="197.613281" y="154.365234"/>
</g>
<path style="fill:none;stroke-width:1;stroke-linecap:butt;stroke-linejoin:miter;stroke:rgb(0%,0%,0%);stroke-opacity:1;stroke-miterlimit:10;" d="M 153.703125 144.949219 L 153.703125 144.949219 M 155.539062 147.324219 L 156.238281 146.554688 M 157.371094 149.699219 L 158.777344 148.15625 M 159.207031 152.070312 L 161.3125 149.757812 M 161.042969 154.445312 L 163.847656 151.359375 M 162.878906 156.816406 L 166.386719 152.960938 M 164.710938 159.191406 L 168.921875 154.5625 M 166.546875 161.566406 L 171.457031 156.164062 M 168.382812 163.9375 L 173.996094 157.765625 M 170.21875 166.3125 L 176.53125 159.367188 M 172.050781 168.683594 L 179.066406 160.96875 M 172.203125 168.882812 L 179.277344 161.101562 "/>
<path style="fill:none;stroke-width:1.2;stroke-linecap:butt;stroke-linejoin:miter;stroke:rgb(0%,0%,0%);stroke-opacity:1;stroke-miterlimit:10;" d="M 153.703125 144.949219 L 124.09375 141.691406 "/>
<path style="fill:none;stroke-width:1.2;stroke-linecap:butt;stroke-linejoin:miter;stroke:rgb(0%,0%,0%);stroke-opacity:1;stroke-miterlimit:10;" d="M 165.953125 117.796875 L 153.703125 144.949219 "/>
<path style="fill:none;stroke-width:1.2;stroke-linecap:butt;stroke-linejoin:miter;stroke:rgb(0%,0%,0%);stroke-opacity:1;stroke-miterlimit:10;" d="M 124.09375 141.691406 L 124.078125 113.1875 "/>
<path style="fill:none;stroke-width:1.2;stroke-linecap:butt;stroke-linejoin:miter;stroke:rgb(0%,0%,0%);stroke-opacity:1;stroke-miterlimit:10;" d="M 124.09375 141.691406 L 104.050781 163.730469 "/>
<path style="fill:none;stroke-width:1.2;stroke-linecap:butt;stroke-linejoin:miter;stroke:rgb(0%,0%,0%);stroke-opacity:1;stroke-miterlimit:10;" d="M 124.078125 113.1875 L 142.710938 136.429688 "/>
<path style="fill:none;stroke-width:1.2;stroke-linecap:butt;stroke-linejoin:miter;stroke:rgb(0%,0%,0%);stroke-opacity:1;stroke-miterlimit:10;" d="M 124.078125 113.1875 L 94.46875 109.929688 "/>
<path style="fill:none;stroke-width:1.2;stroke-linecap:butt;stroke-linejoin:miter;stroke:rgb(0%,0%,0%);stroke-opacity:1;stroke-miterlimit:10;" d="M 147.320312 94.554688 L 124.078125 113.1875 "/>
<path style="fill:none;stroke-width:1.2;stroke-linecap:butt;stroke-linejoin:miter;stroke:rgb(0%,0%,0%);stroke-opacity:1;stroke-miterlimit:10;" d="M 142.710938 136.429688 L 165.953125 117.796875 "/>
<path style="fill:none;stroke-width:1.2;stroke-linecap:butt;stroke-linejoin:miter;stroke:rgb(0%,0%,0%);stroke-opacity:1;stroke-miterlimit:10;" d="M 165.953125 117.796875 L 147.320312 94.554688 "/>
<path style="fill:none;stroke-width:1.2;stroke-linecap:butt;stroke-linejoin:miter;stroke:rgb(0%,0%,0%);stroke-opacity:1;stroke-miterlimit:10;" d="M 165.953125 117.796875 L 195.5625 121.058594 "/>
<path style=" stroke:none;fill-rule:nonzero;fill:rgb(0%,0%,0%);fill-opacity:1;" d="M 195.5625 121.058594 L 219.492188 102.554688 L 211.714844 95.480469 Z M 195.5625 121.058594 "/>
<path style="fill:none;stroke-width:1.2;stroke-linecap:butt;stroke-linejoin:miter;stroke:rgb(0%,0%,0%);stroke-opacity:1;stroke-miterlimit:10;" d="M 215.601562 99.019531 L 244.710938 105.355469 "/>
<path style="fill:none;stroke-width:1.2;stroke-linecap:butt;stroke-linejoin:miter;stroke:rgb(0%,0%,0%);stroke-opacity:1;stroke-miterlimit:10;" d="M 220.003906 92.804688 L 243.289062 97.875 "/>
<path style="fill:none;stroke-width:1.2;stroke-linecap:butt;stroke-linejoin:miter;stroke:rgb(0%,0%,0%);stroke-opacity:1;stroke-miterlimit:10;" d="M 206.535156 70.644531 L 215.601562 99.019531 "/>
<path style="fill:none;stroke-width:1.2;stroke-linecap:butt;stroke-linejoin:miter;stroke:rgb(0%,0%,0%);stroke-opacity:1;stroke-miterlimit:10;" d="M 244.710938 105.355469 L 264.75 83.316406 "/>
<path style="fill:none;stroke-width:1.2;stroke-linecap:butt;stroke-linejoin:miter;stroke:rgb(0%,0%,0%);stroke-opacity:1;stroke-miterlimit:10;" d="M 264.75 83.316406 L 255.683594 54.941406 "/>
<path style="fill:none;stroke-width:1.2;stroke-linecap:butt;stroke-linejoin:miter;stroke:rgb(0%,0%,0%);stroke-opacity:1;stroke-miterlimit:10;" d="M 257.167969 82.613281 L 249.914062 59.914062 "/>
<path style="fill:none;stroke-width:1.2;stroke-linecap:butt;stroke-linejoin:miter;stroke:rgb(0%,0%,0%);stroke-opacity:1;stroke-miterlimit:10;" d="M 255.683594 54.941406 L 226.578125 48.605469 "/>
<path style="fill:none;stroke-width:1.2;stroke-linecap:butt;stroke-linejoin:miter;stroke:rgb(0%,0%,0%);stroke-opacity:1;stroke-miterlimit:10;" d="M 226.578125 48.605469 L 206.535156 70.644531 "/>
<path style="fill:none;stroke-width:1.2;stroke-linecap:butt;stroke-linejoin:miter;stroke:rgb(0%,0%,0%);stroke-opacity:1;stroke-miterlimit:10;" d="M 229.757812 55.523438 L 213.726562 73.15625 "/>
<path style="fill:none;stroke-width:1.2;stroke-linecap:butt;stroke-linejoin:miter;stroke:rgb(0%,0%,0%);stroke-opacity:1;stroke-miterlimit:10;" d="M 94.46875 109.929688 L 82.488281 82.65625 "/>
<path style="fill:none;stroke-width:1.2;stroke-linecap:butt;stroke-linejoin:miter;stroke:rgb(0%,0%,0%);stroke-opacity:1;stroke-miterlimit:10;" d="M 86.855469 110.019531 L 77.269531 88.203125 "/>
<path style="fill:none;stroke-width:1.2;stroke-linecap:butt;stroke-linejoin:miter;stroke:rgb(0%,0%,0%);stroke-opacity:1;stroke-miterlimit:10;" d="M 76.839844 133.941406 L 94.46875 109.929688 "/>
<path style="fill:none;stroke-width:1.2;stroke-linecap:butt;stroke-linejoin:miter;stroke:rgb(0%,0%,0%);stroke-opacity:1;stroke-miterlimit:10;" d="M 82.488281 82.65625 L 67.683594 81.027344 "/>
<path style="fill:none;stroke-width:1.2;stroke-linecap:butt;stroke-linejoin:miter;stroke:rgb(0%,0%,100%);stroke-opacity:1;stroke-miterlimit:10;" d="M 67.683594 81.027344 L 52.878906 79.398438 "/>
<path style="fill:none;stroke-width:1.2;stroke-linecap:butt;stroke-linejoin:miter;stroke:rgb(0%,0%,100%);stroke-opacity:1;stroke-miterlimit:10;" d="M 52.878906 79.398438 L 44.0625 91.402344 "/>
<path style="fill:none;stroke-width:1.2;stroke-linecap:butt;stroke-linejoin:miter;stroke:rgb(0%,0%,0%);stroke-opacity:1;stroke-miterlimit:10;" d="M 44.0625 91.402344 L 35.25 103.410156 "/>
<path style="fill:none;stroke-width:1.2;stroke-linecap:butt;stroke-linejoin:miter;stroke:rgb(0%,0%,100%);stroke-opacity:1;stroke-miterlimit:10;" d="M 56.765625 85.945312 L 49.714844 95.550781 "/>
<path style="fill:none;stroke-width:1.2;stroke-linecap:butt;stroke-linejoin:miter;stroke:rgb(0%,0%,0%);stroke-opacity:1;stroke-miterlimit:10;" d="M 49.714844 95.550781 L 42.664062 105.15625 "/>
<path style=" stroke:none;fill-rule:nonzero;fill:rgb(100%,100%,100%);fill-opacity:1;" d="M 48.878906 72.398438 L 57.878906 72.398438 L 57.878906 86.398438 L 48.878906 86.398438 Z M 48.878906 72.398438 "/>
<g style="fill:rgb(0%,0%,100%);fill-opacity:1;">
  <use xlink:href="#glyph0-1" x="48.878906" y="83.537109"/>
</g>
<path style="fill:none;stroke-width:1.2;stroke-linecap:butt;stroke-linejoin:miter;stroke:rgb(0%,0%,0%);stroke-opacity:1;stroke-miterlimit:10;" d="M 35.25 103.410156 L 47.230469 130.683594 "/>
<path style="fill:none;stroke-width:1.2;stroke-linecap:butt;stroke-linejoin:miter;stroke:rgb(0%,0%,0%);stroke-opacity:1;stroke-miterlimit:10;" d="M 47.230469 130.683594 L 76.839844 133.941406 "/>
<path style="fill:none;stroke-width:1.2;stroke-linecap:butt;stroke-linejoin:miter;stroke:rgb(0%,0%,0%);stroke-opacity:1;stroke-miterlimit:10;" d="M 50.960938 124.042969 L 74.648438 126.648438 "/>
<path style="fill:none;stroke-width:1.2;stroke-linecap:butt;stroke-linejoin:miter;stroke:rgb(0%,0%,0%);stroke-opacity:1;stroke-miterlimit:10;" d="M 104.050781 163.730469 L 74.945312 157.394531 "/>
<path style="fill:none;stroke-width:1.2;stroke-linecap:butt;stroke-linejoin:miter;stroke:rgb(0%,0%,0%);stroke-opacity:1;stroke-miterlimit:10;" d="M 99.652344 169.945312 L 76.367188 164.875 "/>
<path style="fill:none;stroke-width:1.2;stroke-linecap:butt;stroke-linejoin:miter;stroke:rgb(0%,0%,0%);stroke-opacity:1;stroke-miterlimit:10;" d="M 113.117188 192.105469 L 104.050781 163.730469 "/>
<path style="fill:none;stroke-width:1.2;stroke-linecap:butt;stroke-linejoin:miter;stroke:rgb(0%,0%,0%);stroke-opacity:1;stroke-miterlimit:10;" d="M 74.945312 157.394531 L 64.925781 168.414062 "/>
<path style="fill:none;stroke-width:1.2;stroke-linecap:butt;stroke-linejoin:miter;stroke:rgb(0%,0%,100%);stroke-opacity:1;stroke-miterlimit:10;" d="M 64.925781 168.414062 L 54.90625 179.433594 "/>
<path style="fill:none;stroke-width:1.2;stroke-linecap:butt;stroke-linejoin:miter;stroke:rgb(0%,0%,100%);stroke-opacity:1;stroke-miterlimit:10;" d="M 54.90625 179.433594 L 59.4375 193.621094 "/>
<path style="fill:none;stroke-width:1.2;stroke-linecap:butt;stroke-linejoin:miter;stroke:rgb(0%,0%,0%);stroke-opacity:1;stroke-miterlimit:10;" d="M 59.4375 193.621094 L 63.96875 207.808594 "/>
<path style="fill:none;stroke-width:1.2;stroke-linecap:butt;stroke-linejoin:miter;stroke:rgb(0%,0%,100%);stroke-opacity:1;stroke-miterlimit:10;" d="M 62.488281 180.136719 L 66.113281 191.488281 "/>
<path style="fill:none;stroke-width:1.2;stroke-linecap:butt;stroke-linejoin:miter;stroke:rgb(0%,0%,0%);stroke-opacity:1;stroke-miterlimit:10;" d="M 66.113281 191.488281 L 69.738281 202.835938 "/>
<path style=" stroke:none;fill-rule:nonzero;fill:rgb(100%,100%,100%);fill-opacity:1;" d="M 50.90625 172.433594 L 59.90625 172.433594 L 59.90625 186.433594 L 50.90625 186.433594 Z M 50.90625 172.433594 "/>
<g style="fill:rgb(0%,0%,100%);fill-opacity:1;">
  <use xlink:href="#glyph0-1" x="50.90625" y="183.572266"/>
</g>
<path style="fill:none;stroke-width:1.2;stroke-linecap:butt;stroke-linejoin:miter;stroke:rgb(0%,0%,0%);stroke-opacity:1;stroke-miterlimit:10;" d="M 63.96875 207.808594 L 93.078125 214.144531 "/>
<path style="fill:none;stroke-width:1.2;stroke-linecap:butt;stroke-linejoin:miter;stroke:rgb(0%,0%,0%);stroke-opacity:1;stroke-miterlimit:10;" d="M 63.96875 207.808594 L 53.949219 218.828125 "/>
<path style="fill:none;stroke-width:1.2;stroke-linecap:butt;stroke-linejoin:miter;stroke:rgb(0%,80%,0%);stroke-opacity:1;stroke-miterlimit:10;" d="M 53.949219 218.828125 L 43.929688 229.847656 "/>
<path style="fill:none;stroke-width:1.2;stroke-linecap:butt;stroke-linejoin:miter;stroke:rgb(0%,0%,0%);stroke-opacity:1;stroke-miterlimit:10;" d="M 93.078125 214.144531 L 113.117188 192.105469 "/>
<path style="fill:none;stroke-width:1.2;stroke-linecap:butt;stroke-linejoin:miter;stroke:rgb(0%,0%,0%);stroke-opacity:1;stroke-miterlimit:10;" d="M 89.894531 207.226562 L 105.929688 189.59375 "/>
<path style=" stroke:none;fill-rule:nonzero;fill:rgb(100%,100%,100%);fill-opacity:1;" d="M 31.929688 222.847656 L 43.929688 222.847656 L 43.929688 236.847656 L 31.929688 236.847656 Z M 31.929688 222.847656 "/>
<g style="fill:rgb(0%,80%,0%);fill-opacity:1;">
  <use xlink:href="#glyph0-2" x="31.929688" y="233.986328"/>
  <use xlink:href="#glyph0-3" x="40.308594" y="233.986328"/>
</g>
</g>
</svg>

<svg xmlns="http://www.w3.org/2000/svg" xmlns:xlink="http://www.w3.org/1999/xlink" width="300pt" height="300pt" viewBox="0 0 300 300"><defs><symbol overflow="visible"><path d="M.594 2.125V-8.47h6V2.126zm.672-.672h4.671V-7.78h-4.67zm0 0"/></symbol><symbol overflow="visible" id="a"><path d="M1.172-8.75h1.594l3.89 7.313V-8.75h1.14V0H6.204L2.328-7.313V0H1.172zm0 0"/></symbol><symbol overflow="visible" id="b"><path d="M7.734-8.078v1.25c-.406-.375-.836-.65-1.28-.828-.45-.188-.93-.282-1.438-.282-1 0-1.766.31-2.297.922-.533.618-.798 1.5-.798 2.657 0 1.15.266 2.028.797 2.64.53.618 1.296.923 2.296.923.507 0 .988-.094 1.437-.28.445-.19.875-.462 1.28-.83V-.67c-.417.28-.858.496-1.327.64-.46.134-.945.204-1.453.204-1.336 0-2.383-.406-3.14-1.22-.762-.81-1.14-1.913-1.14-3.31 0-1.408.378-2.517 1.14-3.33.757-.812 1.804-1.218 3.14-1.218.52 0 1.008.074 1.47.22.468.135.905.338 1.31.608zm0 0"/></symbol><symbol overflow="visible" id="c"><path d="M1.125-9.125h1.078V0H1.125zm0 0"/></symbol></defs><g><path fill="#fff" d="M0 0h300v300H0z"/><path d="M237.668 251.395l-27.152-12.25M261.852 234.004l-24.184 17.39M210.516 239.145l-2.97-29.64M207.547 209.504l24.183-17.39M231.73 192.113l27.157 12.25M231.73 192.113l-2.964-29.636M258.887 204.363l2.965 29.64M228.766 162.477l-13.578-6.125" stroke-width="1.2" stroke="#000" stroke-miterlimit="10" fill="none"/><path d="M215.188 156.352l-13.575-6.125M201.613 150.227l-12.937 7.382" stroke-width="1.2" stroke="#00f" stroke-miterlimit="10" fill="none"/><path d="M188.676 157.61l-12.934 7.382M195.563 121.06l3.023 14.58" stroke-width="1.2" stroke="#000" stroke-miterlimit="10" fill="none"/><path d="M198.586 135.64l3.027 14.587" stroke-width="1.2" stroke="#00f" stroke-miterlimit="10" fill="none"/><path d="M197.613 143.227h9v14h-9zm0 0" fill="#fff"/><use xlink:href="#a" x="197.613" y="154.365" fill="#00f"/><path d="M153.703 144.95m1.836 2.374l.698-.77m1.133 3.145l1.407-1.544m.43 3.914l2.106-2.312m-.27 4.687l2.805-3.086m-.97 5.456l3.51-3.855m-1.677 6.23l4.212-4.627m-2.375 7.003l4.91-5.402m-3.074 7.774l5.613-6.172m-3.777 8.547l6.31-6.946m-4.48 9.317l7.016-7.715m-6.863 7.913l7.074-7.78" stroke="#000" stroke-miterlimit="10" fill="none"/><path d="M153.703 144.95l-29.61-3.26M165.953 117.797l-12.25 27.152M124.094 141.69l-.016-28.502M124.094 141.69l-20.043 22.04M124.078 113.188l18.633 23.242M124.078 113.188l-29.61-3.258M147.32 94.555l-23.242 18.632M142.71 136.43l23.243-18.633M165.953 117.797L147.32 94.555M165.953 117.797l29.61 3.262" stroke-width="1.2" stroke="#000" stroke-miterlimit="10" fill="none"/><path d="M195.563 121.06l23.93-18.505-7.778-7.075zm0 0"/><path d="M215.602 99.02l29.11 6.335M220.004 92.805l23.285 5.07M206.535 70.645l9.067 28.375M244.71 105.355l20.04-22.04M264.75 83.316l-9.066-28.375M257.168 82.613l-7.254-22.7M255.684 54.94l-29.106-6.335M226.578 48.605l-20.043 22.04M229.758 55.523l-16.03 17.633M94.47 109.93L82.487 82.656M86.855 110.02L77.27 88.203M76.84 133.94l17.63-24.01M82.488 82.656l-14.804-1.63" stroke-width="1.2" stroke="#000" stroke-miterlimit="10" fill="none"/><path d="M67.684 81.027l-14.805-1.63M52.88 79.398L44.06 91.402" stroke-width="1.2" stroke="#00f" stroke-miterlimit="10" fill="none"/><path d="M44.063 91.402L35.25 103.41" stroke-width="1.2" stroke="#000" stroke-miterlimit="10" fill="none"/><path d="M56.766 85.945l-7.05 9.606" stroke-width="1.2" stroke="#00f" stroke-miterlimit="10" fill="none"/><path d="M49.715 95.55l-7.05 9.606" stroke-width="1.2" stroke="#000" stroke-miterlimit="10" fill="none"/><path d="M48.88 72.398h9v14h-9zm0 0" fill="#fff"/><use xlink:href="#a" x="48.879" y="83.537" fill="#00f"/><path d="M35.25 103.41l11.98 27.274M47.23 130.684l29.61 3.257M50.96 124.043l23.688 2.605M104.05 163.73l-29.105-6.335M99.652 169.945l-23.285-5.07M113.117 192.105l-9.066-28.375M74.945 157.395l-10.02 11.02" stroke-width="1.2" stroke="#000" stroke-miterlimit="10" fill="none"/><path d="M64.926 168.414l-10.02 11.02M54.906 179.434l4.532 14.187" stroke-width="1.2" stroke="#00f" stroke-miterlimit="10" fill="none"/><path d="M59.438 193.62l4.53 14.19" stroke-width="1.2" stroke="#000" stroke-miterlimit="10" fill="none"/><path d="M62.488 180.137l3.625 11.35" stroke-width="1.2" stroke="#00f" stroke-miterlimit="10" fill="none"/><path d="M66.113 191.488l3.625 11.348" stroke-width="1.2" stroke="#000" stroke-miterlimit="10" fill="none"/><path d="M50.906 172.434h9v14h-9zm0 0" fill="#fff"/><use xlink:href="#a" x="50.906" y="183.572" fill="#00f"/><path d="M63.97 207.81l29.108 6.335M63.97 207.81l-10.02 11.018" stroke-width="1.2" stroke="#000" stroke-miterlimit="10" fill="none"/><path d="M53.95 218.828l-10.02 11.02" stroke-width="1.2" stroke="#0c0" stroke-miterlimit="10" fill="none"/><path d="M93.078 214.145l20.04-22.04M89.895 207.227l16.035-17.633" stroke-width="1.2" stroke="#000" stroke-miterlimit="10" fill="none"/><path d="M31.93 222.848h12v14h-12zm0 0" fill="#fff"/><g fill="#0c0"><use xlink:href="#b" x="31.93" y="233.986"/><use xlink:href="#c" x="40.309" y="233.986"/></g></g></svg>
